src/assets/duotone/UserRemove.svg

<svg width="24" height="24" viewBox="0 0 24 24"  xmlns="http://www.w3.org/2000/svg">
<path opacity="0.4" d="M21.0901 21.5C21.0901 21.78 20.8701 22 20.5901 22H3.41016C3.13016 22 2.91016 21.78 2.91016 21.5C2.91016 17.36 6.99015 14 12.0002 14C13.0302 14 14.0302 14.14 14.9502 14.41C14.3602 15.11 14.0002 16.02 14.0002 17C14.0002 17.75 14.2101 18.46 14.5801 19.06C14.7801 19.4 15.0401 19.71 15.3401 19.97C16.0401 20.61 16.9702 21 18.0002 21C19.1202 21 20.1302 20.54 20.8502 19.8C21.0102 20.34 21.0901 20.91 21.0901 21.5Z" />
<path d="M21.8802 16.0398C21.7802 15.6498 21.6202 15.2598 21.4002 14.9098C21.2502 14.6498 21.0502 14.3998 20.8302 14.1698C20.1102 13.4498 19.1702 13.0598 18.2102 13.0098C17.1202 12.9398 16.0102 13.3398 15.1702 14.1698C14.3802 14.9598 13.9802 16.0098 14.0002 17.0598C14.0102 18.0598 14.4102 19.0598 15.1702 19.8298C15.7002 20.3598 16.3502 20.7098 17.0402 20.8698C17.4202 20.9698 17.8202 21.0098 18.2202 20.9798C19.1702 20.9398 20.1002 20.5598 20.8302 19.8298C21.8602 18.7998 22.2102 17.3498 21.8802 16.0398ZM19.6002 18.5998C19.3102 18.8898 18.8302 18.8898 18.5402 18.5998L17.9902 18.0498L17.4602 18.5798C17.1702 18.8698 16.6902 18.8698 16.4002 18.5798C16.1102 18.2798 16.1102 17.8098 16.4002 17.5198L16.9302 16.9898L16.4202 16.4898C16.1302 16.1898 16.1302 15.7198 16.4202 15.4198C16.7202 15.1298 17.1902 15.1298 17.4902 15.4198L17.9902 15.9298L18.5202 15.3998C18.8102 15.1098 19.2802 15.1098 19.5802 15.3998C19.8702 15.6898 19.8702 16.1698 19.5802 16.4598L19.0502 16.9898L19.6002 17.5398C19.8902 17.8298 19.8902 18.3098 19.6002 18.5998Z" />
<path d="M12 12C14.7614 12 17 9.76142 17 7C17 4.23858 14.7614 2 12 2C9.23858 2 7 4.23858 7 7C7 9.76142 9.23858 12 12 12Z" />
</svg>

<?xml version="1.0" encoding="UTF-8"?>
<svg width="24" height="24" viewBox="0 0 24 24" xmlns="http://www.w3.org/2000/svg">
 <path d="m21.09 21.5c0 0.28-0.22 0.5-0.5 0.5h-17.18c-0.28 0-0.5-0.22-0.5-0.5 0-4.14 4.08-7.5 9.09-7.5 1.03 0 2.03 0.14 2.95 0.41-0.59 0.7-0.95 1.61-0.95 2.59 0 0.75 0.2099 1.46 0.5799 2.06 0.2 0.34 0.46 0.65 0.76 0.91 0.7 0.64 1.6301 1.03 2.6601 1.03 1.12 0 2.13-0.46 2.85-1.2 0.16 0.54 0.2399 1.11 0.2399 1.7z" opacity=".4"/>
 <path d="m21.88 16.04c-0.1-0.39-0.26-0.78-0.48-1.13-0.15-0.26-0.35-0.51-0.57-0.74-0.72-0.72-1.66-1.11-2.62-1.16-1.09-0.07-2.2 0.33-3.04 1.16-0.79 0.79-1.19 1.84-1.17 2.89 0.01 1 0.41 2 1.17 2.77 0.53 0.53 1.18 0.88 1.87 1.04 0.38 0.1 0.78 0.14 1.18 0.11 0.95-0.04 1.88-0.42 2.61-1.15 1.03-1.03 1.38-2.48 1.05-3.79zm-2.28 2.56c-0.29 0.29-0.77 0.29-1.06 0l-0.55-0.55-0.53 0.53c-0.29 0.29-0.77 0.29-1.06 0-0.29-0.3-0.29-0.77 0-1.06l0.53-0.53-0.51-0.5c-0.29-0.3-0.29-0.77 0-1.07 0.3-0.29 0.77-0.29 1.07 0l0.5 0.51 0.53-0.53c0.29-0.29 0.76-0.29 1.06 0 0.29 0.29 0.29 0.77 0 1.06l-0.53 0.53 0.55 0.55c0.29 0.29 0.29 0.77 0 1.06z"/>
 <path d="m12 12c2.7614 0 5-2.2386 5-5s-2.2386-5-5-5c-2.7614 0-5 2.2386-5 5s2.2386 5 5 5z"/>
</svg>
